X:1
T:All the World for Jesus
T:Grant Colfax Tullar
T:All the World for Jesus
T:Public Domain
T:Public Domain
T:Public Domain
C:Grant Colfax Tullar
Z:Public Domain
%%score 1 ( 2 3 )
L:1/8
M:4/4
K:F
V:1 treble 
V:2 bass 
V:3 bass 
V:1
 [CF]2 [FA]>[FB] [Fc][Fc] [Fc]2 | [Fd][Fd][Fd][Fd] [Fc]4 | [GB][GB][GB][GB] [FA][FA] [FA]2 | %3
w: 1.~Take up the bat- tle cry|all a- long the line;|You shall gain the vic- to- ry,|
w: 2.~Truth’s ar- mor you may claim,|faith will be your shield;|Fight- ing on in Je- sus’ name,|
w: 3.~Sol- diers, with cour- age go,|go for- sak- ing all;|On- ward, then, to meet the foe,|
 [F=B][FB][FA][FG] [Ec]4 | [CF]2 [FA]>[FB] [Fc][Fc] [Fc]2 | [Fd][Fd][Fd][Fd] [Fc]4 | %6
w: vic- to- ry di- vine,|With your com- mand- er nigh,|foes in vain com- bine;|
w: might- y power you wield;|Glo- ry for God your aim,|naught can make you yield;|
w: soon the foe shall fall;|Send might- y blow on blow—|let no fear ap- pall;|
 [Fd][Fe][Ff][Fd] [Fc]2 [FA]2 | [EG][EB][FA][EG] [CF]4 ||"^Refrain" [EG][EG][EG][FA] [GB]2 [EG]2 | %9
w: Raise a- loft the ban- ner,|let it bear the sign.||
w: Shout a- loud the tri- umph|sure to be re- vealed.|“All the world for Je- sus,”|
w: In the name of Je- sus,|sound a- far the call.||
 [FA][FA][FA][Fd] [Fc]4 | [F=B][FB][FB][Fc] [Fd]2 [Ff]2 | .[Ge]2 .[Fd]2 [Ec]4 | %12
w: |||
w: let the cho- rus ring;|“All the world for Je- sus,”|crown Him King;|
w: |||
 [CA][FA][FA][GB] [Ac]2 [FA]2 | [Fd][Fd][Fd][Fd] [Fc]4 | cBAG FED[GB] | .[FA]2 .[EG]2 [CF]4 |] %16
w: ||||
w: “All the world for Je- sus,”|let the watch- word be|“For- ward go in Je- sus’ name to|vic- to- ry.”|
w: ||||
V:2
 [F,A,]2 [F,C]>[F,G,] [F,A,][F,A,] [F,A,]2 | [B,,B,][D,B,][F,B,]B, [F,A,]4 | %2
 [C,C][D,C][E,C][C,C] [F,C][G,C] [A,C]2 | [G,D][G,D][G,C][G,=B,] (C2 _B,2) | %4
 [F,A,]2 [F,C]>[F,G,] [F,A,][F,A,] [F,A,]2 | [B,,B,][D,B,][F,B,]B, [F,A,]4 | %6
 [B,,B,][B,,C][B,,D][B,,B,] [F,A,]2 [F,C]2 | [C,C][C,C][C,C][C,B,] [F,A,]4 || %8
 [C,C][C,C][C,C][C,C] [C,C]2 [C,C]2 | [F,C][F,C][F,C][F,B,] [F,A,]4 | %10
 [G,D][G,D][G,D][G,C] [G,=B,]2 [G,D]2 | .[G,C]2 .[G,=B,]2 (C2 _B,2) | %12
 [F,A,][F,C][F,C][F,C] [F,F]2 [F,C]2 | [B,,B,][D,B,][F,B,]B, [F,A,]4 | CB,A,G, F,E,D,[B,,C] | %15
 .[C,C]2 (.CB,) [F,,F,A,]4 |] %16
V:3
 x8 | x3 B, x4 | x8 | x4 C,4 | x8 | x3 B, x4 | x8 | x8 || x8 | x8 | x8 | x4 C,4 | x8 | x3 B, x4 | %14
 CB,A,G, F,E,D, x | x2 C,2 x4 |] %16

